svg/file_word_outline.svg

<svg xmlns="http://www.w3.org/2000/svg" viewBox="0 0 24 24"><path d="M14 2H6a2 2 0 0 0-2 2v16c0 1.11.89 2 2 2h12c1.11 0 2-.89 2-2V8zm4 18H6V4h7v5h5zm-.65-10-2.1 9h-1.4l-1.8-6.79-1.8 6.79h-1.4l-2.2-9h1.5l1.4 6.81 1.8-6.81h1.3l1.8 6.81 1.4-6.81z"/></svg>

<?xml version="1.0" encoding="UTF-8"?><!DOCTYPE svg PUBLIC "-//W3C//DTD SVG 1.1//EN" "http://www.w3.org/Graphics/SVG/1.1/DTD/svg11.dtd"><svg xmlns="http://www.w3.org/2000/svg" xmlns:xlink="http://www.w3.org/1999/xlink" version="1.1" id="mdi-file-word-outline" width="24" height="24" viewBox="0 0 24 24"><path d="M14 2H6C4.89 2 4 2.9 4 4V20C4 21.11 4.89 22 6 22H18C19.11 22 20 21.11 20 20V8L14 2M18 20H6V4H13V9H18V20M17.35 10L15.25 19H13.85L12.05 12.21L10.25 19H8.85L6.65 10H8.15L9.55 16.81L11.35 10H12.65L14.45 16.81L15.85 10H17.35Z" /></svg>
